X:1
T:HARVESTING
M:2/4
Q:1/4=120
K:Bb
d2d2e2c2|=B2G2c2c2|d2d2e3c|=B2G2c2e2|B2B2A4|
G4g4|B2B2A4|G11/2||
